nextcloudappstore/core/static/assets/img/icons/footer/source-fork.svg

<svg width="20" height="20" fill="none" style="-webkit-print-color-adjust:exact" version="1.1" viewBox="0 0 20 20" xmlns="http://www.w3.org/2000/svg"><g rx="0" ry="0" fill="#000"><g class="fills"><path rx="0" ry="0" d="m5 1.667c1.381 0 2.5 1.119 2.5 2.5 0 1.066-0.675 1.983-1.617 2.341 0.075 0.384 0.275 0.85 0.784 1.517 0.833 1.075 2.5 2.667 3.333 3.783 0.833-1.116 2.5-2.708 3.333-3.783 0.509-0.667 0.709-1.133 0.784-1.517-0.942-0.358-1.617-1.275-1.617-2.341 0-1.381 1.119-2.5 2.5-2.5s2.5 1.119 2.5 2.5c0 1.1-0.717 2.041-1.708 2.375-0.067 0.433-0.259 0.958-0.792 1.65-0.833 1.116-2.5 2.708-3.333 3.791-0.509 0.659-0.709 1.125-0.784 1.509 0.942 0.358 1.617 1.275 1.617 2.341 0 1.381-1.119 2.5-2.5 2.5s-2.5-1.119-2.5-2.5c0-1.066 0.675-1.983 1.617-2.341-0.075-0.384-0.275-0.85-0.784-1.509-0.833-1.083-2.5-2.675-3.333-3.791-0.533-0.692-0.725-1.217-0.792-1.65-0.991-0.334-1.708-1.275-1.708-2.375 0-1.381 1.119-2.5 2.5-2.5zm0 1.666c-0.46 0-0.833 0.373-0.833 0.834 0 0.46 0.373 0.833 0.833 0.833s0.833-0.373 0.833-0.833c0-0.461-0.373-0.834-0.833-0.834zm10 0c-0.46 0-0.833 0.373-0.833 0.834 0 0.46 0.373 0.833 0.833 0.833s0.833-0.373 0.833-0.833c0-0.461-0.373-0.834-0.833-0.834zm-5 11.667c-0.46 0-0.833 0.373-0.833 0.833 0 0.461 0.373 0.834 0.833 0.834s0.833-0.373 0.833-0.834c0-0.46-0.373-0.833-0.833-0.833z" fill="#007bbd"/></g></g></svg>

<svg xmlns:xlink="http://www.w3.org/1999/xlink" width="20" xmlns="http://www.w3.org/2000/svg" height="20" id="screenshot-db15cf86-6f9e-8025-8002-bbab9ed697bf" viewBox="0 0 20 20" style="-webkit-print-color-adjust: exact;" fill="none" version="1.1"><g id="shape-db15cf86-6f9e-8025-8002-bbab9ed697bf" rx="0" ry="0" style="fill: rgb(0, 0, 0);"><g id="shape-db15cf86-6f9e-8025-8002-bbab9ed6fe0c"><g class="fills" id="fills-db15cf86-6f9e-8025-8002-bbab9ed6fe0c"><path rx="0" ry="0" d="M5.000,1.667C6.381,1.667,7.500,2.786,7.500,4.167C7.500,5.233,6.825,6.150,5.883,6.508C5.958,6.892,6.158,7.358,6.667,8.025C7.500,9.100,9.167,10.692,10.000,11.808C10.833,10.692,12.500,9.100,13.333,8.025C13.842,7.358,14.042,6.892,14.117,6.508C13.175,6.150,12.500,5.233,12.500,4.167C12.500,2.786,13.619,1.667,15.000,1.667C16.381,1.667,17.500,2.786,17.500,4.167C17.500,5.267,16.783,6.208,15.792,6.542C15.725,6.975,15.533,7.500,15.000,8.192C14.167,9.308,12.500,10.900,11.667,11.983C11.158,12.642,10.958,13.108,10.883,13.492C11.825,13.850,12.500,14.767,12.500,15.833C12.500,17.214,11.381,18.333,10.000,18.333C8.619,18.333,7.500,17.214,7.500,15.833C7.500,14.767,8.175,13.850,9.117,13.492C9.042,13.108,8.842,12.642,8.333,11.983C7.500,10.900,5.833,9.308,5.000,8.192C4.467,7.500,4.275,6.975,4.208,6.542C3.217,6.208,2.500,5.267,2.500,4.167C2.500,2.786,3.619,1.667,5.000,1.667ZM5.000,3.333C4.540,3.333,4.167,3.706,4.167,4.167C4.167,4.627,4.540,5.000,5.000,5.000C5.460,5.000,5.833,4.627,5.833,4.167C5.833,3.706,5.460,3.333,5.000,3.333ZM15.000,3.333C14.540,3.333,14.167,3.706,14.167,4.167C14.167,4.627,14.540,5.000,15.000,5.000C15.460,5.000,15.833,4.627,15.833,4.167C15.833,3.706,15.460,3.333,15.000,3.333ZM10.000,15.000C9.540,15.000,9.167,15.373,9.167,15.833C9.167,16.294,9.540,16.667,10.000,16.667C10.460,16.667,10.833,16.294,10.833,15.833C10.833,15.373,10.460,15.000,10.000,15.000ZZ" style="fill: rgb(0, 123, 189); fill-opacity: 1;"/></g></g></g></svg>
